X:1
T:Santo Solemne - Intro
T:Santo Solemne - Intro
T:Misa - Santo
%%score ( 1 2 ) 3 4 5
L:1/8
Q:1/4=70
M:4/4
K:D
V:1 tab stafflines=6 strings=E2,A2,D3,G3,B3,E4 nm="Classical Guitar" snm="Guit."
V:2 tab stafflines=6 strings=E2,A2,D3,G3,B3,E4 
V:3 treble transpose=-14 nm="Tenor Saxophone" snm="T. Sax."
V:4 treble transpose=-9 nm="Alto Saxophone" snm="A. Sax."
V:5 treble nm="Accordion" snm="Acc."
V:1
"Bm" [!5!B,,!1!F]!3!B,!2!D!1!F"Em" [!6!E,,!1!G]!1!F!1!E!2!D | %1
"A" [!5!A,,!2!C]!3!A,!2!C!1!E"D" !1!F/!2!D/"D/C#"!3!A, !3!A,/!2!D/!1!F/!1!E/ | %2
"Bm" [!5!B,,!1!F]!3!B,!2!D!1!F [!6!E,,!1!G]"Em"!1!F!1!E!2!D | %3
"F#7" !arpeggio![!6!F,,!5!C,!4!F,!3!^A,!2!C!1!F]4"Bm" !5!B,,!3!B,!1!F!2!D | %4
"B7" !arpeggio![!5!B,,!4!^D,!3!A,!2!B,!1!F]4 x4 |] %5
V:2
 x8 | x4 !4!D,3/2!5!C,>"D"!5!D,!5!C,/ | x8 | x8 | x8 |] %5
V:3
[K:E] g3 f/g/{/g} a3 f/e/ | deba g>a g/f/e | ceag f2 ga | ^b/c'/b/a/ g/f/e/d/ cege | g4 z4 |] %5
V:4
[K:B] d3 c/d/{/d} e3 c/B/ | ABfe d>e d/c/B | GBed c2 de | ^^f/g/f/e/ d/c/B/A/ GBdB | d4 z4 |] %5
V:5
 F3 E/F/{/F} G3 E/D/ | CDAG F>G F/E/D | B,DGF E2 FG | ^A/B/A/G/ F/E/D/C/ B,DFD | F4 z4 |] %5

